svg/book_heart_outline.svg

<svg xmlns="http://www.w3.org/2000/svg" viewBox="0 0 24 24"><path d="m19 23.3-.6-.5c-2-1.9-3.4-3.1-3.4-4.6 0-1.2 1-2.2 2.2-2.2.7 0 1.4.3 1.8.8.4-.5 1.1-.8 1.8-.8 1.2 0 2.2.9 2.2 2.2 0 1.5-1.4 2.7-3.4 4.6zM18 2c1.1 0 2 .9 2 2v9.08L19 13l-1 .08V4h-5v8l-2.5-2.25L8 12V4H6v16h7.08c.12.72.37 1.39.72 2H6c-1.1 0-2-.9-2-2V4c0-1.1.9-2 2-2z"/></svg>

<svg xmlns="http://www.w3.org/2000/svg" id="mdi-book-heart-outline" viewBox="0 0 24 24"><path d="M19 23.3L18.4 22.8C16.4 20.9 15 19.7 15 18.2C15 17 16 16 17.2 16C17.9 16 18.6 16.3 19 16.8C19.4 16.3 20.1 16 20.8 16C22 16 23 16.9 23 18.2C23 19.7 21.6 20.9 19.6 22.8L19 23.3M18 2C19.1 2 20 2.9 20 4V13.08L19 13L18 13.08V4H13V12L10.5 9.75L8 12V4H6V20H13.08C13.2 20.72 13.45 21.39 13.8 22H6C4.9 22 4 21.1 4 20V4C4 2.9 4.9 2 6 2H18Z" /></svg>
